X:12
T:The Merry Blacksmith
C:Traditional / D
M:C|
N:MPSP version
R:Reel
Z:JMcC-Y, July 5, 2000
K:D
(AB)|:d3 (A {d}BA)FA|ABd(A {d}BA)FA|ABd(e f2) ed|Beed egfe|
dcd(A {d}BA)FA|ABd(A {d}BA)FA|ABde fdec|[1dBAF D2 AB:|[2dBAF D2 fg|
|:a2 (ag) f2 (fe)|d3 (A {d}BA)FA|ABde f2ed|Beed e(gfe)|
aba(g fg)fe|dcd(A {d}BA)FA|ABde fdec|[1dBAF D2 fg:|[2dBAF d4|]
